public/magatama-red.svg

<svg width="70" height="98" fill="none" xmlns="http://www.w3.org/2000/svg">
<path fill-rule="evenodd" clip-rule="evenodd" d="M0 20.0002C0 31.0459 8 40 25 40c13.5177 0 17 7.6114 17 17.0002 0 7.6392-5.0388 14.1015-11.9741 16.2448C24 75.1072 18 77.5 18 86c0 6.5 7.5964 11.5 14.5 11.5 2.1816 0 7.5739-1.3641 9.5-2.5 19.5-11.5 28-22.5 28-44.9998C70 22.6455 56 0 22 0 10.9543 0 0 8.95454 0 20.0002ZM28 25c2.7614 0 5-2.2386 5-5s-2.2386-5-5-5-5 2.2386-5 5 2.2386 5 5 5Z" fill="#D94C5A"/>
</svg>

<svg width="70" height="98" viewBox="0 0 70 98" fill="none" xmlns="http://www.w3.org/2000/svg">
<path fill-rule="evenodd" clip-rule="evenodd" d="M0 20.0002C0 31.0459 8 40 25 40C38.5177 40 42 47.6114 42 57.0002C42 64.6394 36.9612 71.1017 30.0259 73.245C24 75.1072 18 77.5 18 86C18 92.5 25.5964 97.5 32.5 97.5C34.6816 97.5 40.0739 96.1359 42 95C61.5 83.5 70 72.5 70 50.0002C70 22.6455 56 0 22 0C10.9543 0 0 8.95454 0 20.0002ZM28 25C30.7614 25 33 22.7614 33 20C33 17.2386 30.7614 15 28 15C25.2386 15 23 17.2386 23 20C23 22.7614 25.2386 25 28 25Z" fill="#D94C5A"/>
</svg>
